icons/svg/briefcase-download.svg

﻿<?xml version="1.0" encoding="utf-8"?>
<!DOCTYPE svg PUBLIC "-//W3C//DTD SVG 1.1//EN" "http://www.w3.org/Graphics/SVG/1.1/DTD/svg11.dtd">
<svg xmlns="http://www.w3.org/2000/svg" xmlns:xlink="http://www.w3.org/1999/xlink" version="1.1" baseProfile="full" width="24" height="24" viewBox="0 0 24.00 24.00" enable-background="new 0 0 24.00 24.00" xml:space="preserve">
	<path fill="#000000" fill-opacity="1" stroke-width="0.2" stroke-linejoin="round" d="M 11.9994,18.9981L 6.99939,13.9981L 9.99939,13.9981L 9.99939,9.99807L 13.9994,9.99807L 13.9994,13.9981L 16.9994,13.9981M 9.99939,3.99807L 13.9994,3.99807L 13.9994,5.99807L 9.99939,5.99807M 19.9994,5.99807L 15.9994,5.99807L 15.9994,3.99807L 13.9994,1.99807L 9.99939,1.99807L 7.99939,3.99807L 7.99939,5.99807L 3.99939,5.99807C 2.8934,5.99807 2.01038,6.89306 2.01038,7.99807L 1.99939,18.9981C 1.99939,20.1031 2.8934,20.9981 3.99939,20.9981L 19.9994,20.9981C 21.1044,20.9981 21.9994,20.1031 21.9994,18.9981L 21.9994,7.99807C 21.9994,6.89306 21.1044,5.99807 19.9994,5.99807 Z "/>
</svg>

<svg xmlns="http://www.w3.org/2000/svg" version="1.1" baseProfile="full" width="24" height="24" viewBox="0 0 24.00 24.00" xml:space="preserve"><path fill="#000" fill-opacity="1" stroke-width=".2" stroke-linejoin="round" d="M12 18.998l-5-5h3v-4h4v4h3m-7-10h4v2h-4m10 0h-4v-2l-2-2h-4l-2 2v2H4c-1.107 0-1.99.895-1.99 2l-.01 11c0 1.105.893 2 2 2h16c1.104 0 2-.895 2-2v-11c0-1.105-.896-2-2-2z"/></svg>
